X: 1
T: Up Da Stroods (da Sailors Go)
M: 4/4
L: 1/8
R: reel
F: http://www.slainte.ch/abc/myreels.txt
S: https://tunearch.org//wiki/Up_da_Stroods_da_Sailors_Go
K: Bm
|:\
B3 B dB B2 | FBBc dBAF | AB B2 ABde | faef edBA |
AB B2 dB B2 | FBBc dBAF | AB B2 ABde | faef edBA :|
|:\
A2 ag fede | f2 af f2 af | fg g2 fede | faef edBA |
A2 ag fede | f2 af f2 af | fg g2 fede | faef edBA :|
